X:1
T:Title
%%score ( 1 2 )
L:1/8
M:4/4
I:linebreak $
K:D
V:1 treble nm="Voice" snm="Voice"
V:2 treble 
V:1
 F2 [Ag]3 [Fce]4 | dA fA eA .fA | !^!gA fA ed [Dc]2 | ed cB x5 | dA fA eA fA |$ !^!gf ed cA Bc | %6
 d2 f2 d2 [Dc]2 :: !^!eA AA fA AA | !^!gA fA eA Af | !^!gA fA ed [Dc]2 |$ !^!ed cB A2 [Gg]2 | %11
 Dd dd !^![Dc]2 e2 | df f(f [Fe]2 g2) | f(3g gf g2 e2 c2 | d2 f2 d2 :| %15
V:2
 x9 | x8 | x8 | x3 A2 G2 F2 | x8 |$ x8 | x8 :: x8 | x8 | x8 |$ x8 | x8 | x8 | x9 | x6 :| %15

